X: 1
T: Fishin' the Kettle Hole
C: Richard L. Hottinger 1994
R: reel
Z: 2005 John Chambers <jc:trillian.mit.edu>
M: C|
L: 1/8
K: D
DE \
| F2D2 D2ED | EFA2 B3 B- | BdBA FEDE | F2E2 E2FD \
| D2DE FDFA | BABc d3 d- | dBAF EDEF | ~E2D2 D2 :|
FA \
| B4 B3A | Bd2d- dBAF |A3 A- ABAF | EDD2 DEFD \
| B4 B3A | Bd2d- dBA2 | d4 d3f- | fafe dBAF |
| AB3 B3A | Bd2d- dBAF | A3A- ABAF | EDD2 DEFD \
| E4 E4 | [e-B][ec][ec][eB] AFE2 | D4 D3E | D6 |]
